public/assets/images/contact/linkedin.svg

<svg enable-background="new 0 0 56.693 56.693" height="56.693" viewBox="0 0 56.693 56.693" width="56.693" xmlns="http://www.w3.org/2000/svg"><path d="m30.071 27.101v-.077c-.016.026-.033.052-.05.077z"/><path d="m49.265 4.667h-42.12c-2.016 0-3.651 1.596-3.651 3.563v42.613c0 1.966 1.635 3.562 3.651 3.562h42.12c2.019 0 3.654-1.597 3.654-3.562v-42.613c0-1.968-1.636-3.563-3.654-3.563zm-30.79 41.637h-7.465v-22.459h7.465zm-3.732-25.527h-.05c-2.504 0-4.124-1.725-4.124-3.88 0-2.203 1.67-3.88 4.223-3.88 2.554 0 4.125 1.677 4.175 3.88 0 2.155-1.622 3.88-4.224 3.88zm30.651 25.527h-7.465v-12.018c0-3.018-1.08-5.078-3.781-5.078-2.062 0-3.29 1.389-3.831 2.731-.197.479-.245 1.149-.245 1.821v12.543h-7.465s.098-20.354 0-22.459h7.465v3.179c.992-1.53 2.766-3.709 6.729-3.709 4.911 0 8.594 3.211 8.594 10.11v12.88z"/></svg>

<?xml version="1.0" ?><!DOCTYPE svg  PUBLIC '-//W3C//DTD SVG 1.1//EN'  'http://www.w3.org/Graphics/SVG/1.1/DTD/svg11.dtd'><svg enable-background="new 0 0 56.693 56.693" height="56.693px" id="Layer_1" version="1.1" viewBox="0 0 56.693 56.693" width="56.693px" xml:space="preserve" xmlns="http://www.w3.org/2000/svg" xmlns:xlink="http://www.w3.org/1999/xlink"><g><path d="M30.071,27.101v-0.077c-0.016,0.026-0.033,0.052-0.05,0.077H30.071z"/><path d="M49.265,4.667H7.145c-2.016,0-3.651,1.596-3.651,3.563v42.613c0,1.966,1.635,3.562,3.651,3.562h42.12   c2.019,0,3.654-1.597,3.654-3.562V8.23C52.919,6.262,51.283,4.667,49.265,4.667z M18.475,46.304h-7.465V23.845h7.465V46.304z    M14.743,20.777h-0.05c-2.504,0-4.124-1.725-4.124-3.88c0-2.203,1.67-3.88,4.223-3.88c2.554,0,4.125,1.677,4.175,3.88   C18.967,19.052,17.345,20.777,14.743,20.777z M45.394,46.304h-7.465V34.286c0-3.018-1.08-5.078-3.781-5.078   c-2.062,0-3.29,1.389-3.831,2.731c-0.197,0.479-0.245,1.149-0.245,1.821v12.543h-7.465c0,0,0.098-20.354,0-22.459h7.465v3.179   c0.992-1.53,2.766-3.709,6.729-3.709c4.911,0,8.594,3.211,8.594,10.11V46.304z"/></g></svg>
